symbols/web/file_copy/materialsymbolsrounded/file_copy_wght100grad200_48px.svg

<svg xmlns="http://www.w3.org/2000/svg" height="48" width="48"><path d="M37.55 36.1h-20.2q-1.35 0-2.35-.975t-1-2.375V6.45q0-1.4 1-2.375 1-.975 2.35-.975h13.2q.65 0 1.3.275t1.1.725l6.95 7q.45.5.725 1.1.275.6.275 1.35v19.2q0 1.4-.975 2.375-.975.975-2.375.975ZM31 4.85H17.35q-.6 0-1.1.5-.5.5-.5 1.1v26.3q0 .6.5 1.1.5.5 1.1.5h20.2q.6 0 1.1-.5.5-.5.5-1.1v-19.8h-6.5q-.65 0-1.15-.475Q31 12 31 11.3ZM8.65 44.8q-1.35 0-2.35-.975t-1-2.375v-24.5q0-.35.275-.6t.625-.25q.35 0 .6.25t.25.6v24.5q0 .6.5 1.1.5.5 1.1.5H27q.35 0 .625.275t.275.625q0 .35-.275.6T27 44.8Zm7.1-39.95v8.1-8.1 29.5V4.85Z"/></svg>

<svg xmlns="http://www.w3.org/2000/svg" height="48" width="48"><path d="M37.55 36.1H17.35Q16 36.1 15 35.125Q14 34.15 14 32.75V6.45Q14 5.05 15 4.075Q16 3.1 17.35 3.1H30.55Q31.2 3.1 31.85 3.375Q32.5 3.65 32.95 4.1L39.9 11.1Q40.35 11.6 40.625 12.2Q40.9 12.8 40.9 13.55V32.75Q40.9 34.15 39.925 35.125Q38.95 36.1 37.55 36.1ZM31 4.85H17.35Q16.75 4.85 16.25 5.35Q15.75 5.85 15.75 6.45V32.75Q15.75 33.35 16.25 33.85Q16.75 34.35 17.35 34.35H37.55Q38.15 34.35 38.65 33.85Q39.15 33.35 39.15 32.75V12.95H32.65Q32 12.95 31.5 12.475Q31 12 31 11.3ZM8.65 44.8Q7.3 44.8 6.3 43.825Q5.3 42.85 5.3 41.45V16.95Q5.3 16.6 5.575 16.35Q5.85 16.1 6.2 16.1Q6.55 16.1 6.8 16.35Q7.05 16.6 7.05 16.95V41.45Q7.05 42.05 7.55 42.55Q8.05 43.05 8.65 43.05H27Q27.35 43.05 27.625 43.325Q27.9 43.6 27.9 43.95Q27.9 44.3 27.625 44.55Q27.35 44.8 27 44.8ZM15.75 4.85V11.3Q15.75 12 15.75 12.475Q15.75 12.95 15.75 12.95V4.85V11.3Q15.75 12 15.75 12.475Q15.75 12.95 15.75 12.95V32.75Q15.75 33.35 15.75 33.85Q15.75 34.35 15.75 34.35Q15.75 34.35 15.75 33.85Q15.75 33.35 15.75 32.75V6.45Q15.75 5.85 15.75 5.35Q15.75 4.85 15.75 4.85Z"/></svg>
